X: 170
T: Man of the House
M: 4/4
R:reel
L: 1/8
K:Edor
"Em"E2 BE GABG | ~E2 BE "D"ADFD |"Em" ~E2BE GABe |1 "D"dBAd "Em"BEED :|2"D" dBAd "Em"BEE2 ||
"Em"efge "D"fgaf |"G" gfed "Em"eB ~B2 |"Em" efge "D"fgaf |"G" gfed "Em"Be ~e2 |
"Em"efge "D"fgaf |"G" gfed "Em"efga | bgaf gefd | eB=cA BGAF |]


